X:1
T:Title
%%score { ( 1 3 5 ) | ( 2 4 ) }
L:1/8
M:6/4
K:D
V:1 treble nm="Grand Piano"
V:3 treble 
V:5 treble 
V:2 treble 
V:4 treble 
V:1
 z6 z4[Q:1/4=108] d2 | .c6 .A6 | .F6 .A6 | .B6 .A6 | E12 | %5
 [A,F]4[K:bass] [G,E]2 [F,D]4[K:treble] [A,F]2 | [FA]4 [FB]2 [FA]4 [FB]2 | %7
 [Ec]4 [Fd]2 [Ec]4 [DB]2 |[M:5/4] A2- [EA-]2 [FA-]2 [GA]2 z2 |[M:6/8] z A2- A B2- | B A2- A2 z | %11
 z d2- d c2- | c B2- B3 | z c2- c B2- | B c2- c2 z | z B2- B c2- | c A2- A3[K:bass] | %17
 z[K:treble] A2- A B2- | B A2- A2 z | z d2- d e2 | z [DGd]2- [DGd]3[K:bass] | %21
 [DGd] [EBe]2 [DBd] [D=Fc]2 | [D=FB] [D^Fd]2 [DA] [B,DA]2 | z F2- F E2- |[M:5/8] E[K:bass] z z z2 | %25
 z5 |] %26
V:2
 z6 z4 D2 | z2 D2 [B,DF]2 z2 D2 [B,DF]2 | F,4 G,2 z2[K:treble] D2 [A,DF]2 | %3
 z2 D2 D2[K:bass] z2 D2 [D,A,D]2 | z2 G,2 G,2 G,4 A,,2 | z2 A,,2 D,2 z2 A,,2 D,2 | %6
 z2 A,,2 D,2 z2 A,,2 D,2 | z2 A,,2 E,2 z2 ^G,,2 E,2 |[M:5/4] z2 C2 D2 E2 z2 |[M:6/8] z2 D .D2 D | %10
 .D2 D .D2 [DF] | .[DF]2 F .F2 E | .E2 D .D2 E | .[EG]2 E .E2 E | .E2 E .E2 [EG] | .[EG]2 E .E2 E | %16
 .E2 D .D2 D | .D2 D .D2 D | .D2 D .D2 [DF] | .[DF]2 F .F2 F | %20
 [FA] [B,,,B,,]2- [B,,,B,,]B,,,^A,,, | [B,,,B,,] [G,,G,]2 [G,,G,] [^G,,^G,]2 | %22
 [^G,,^G,] [A,,A,]2 [F,,F,] [E,,E,]2 | .[E,,E,]2 A, .A,2 G, |[M:5/8] G,D,,- D,,3- | D,, z z z2 |] %26
V:3
 x12 | z2 F2 B2 z2 F2 B2 | z2 A,2 G2 z2 F2 A2 | z2 G2 d2 z2 F2 F2 | z2 C2 B,2 C4 [A,CG]2 | %5
 x4[K:bass] x6[K:treble] x2 | x12 | x12 |[M:5/4] C2 z2 z2 z4 |[M:6/8] .F2 F .F2 F | .F2 F .F2 B | %11
 .c2 A .A2 ^A | .^A2 G .G2 G | .B2 G .G2 G | .G2 G .G2 d | .c2 G .G2 G | .G2 F .F2[K:bass] F | %17
 .F2[K:treble] F .F2 F | .F2 F .F2 B | .c2 A .A2 A | .d3 z[K:bass] B,,^A,, | x6 | x6 | %23
 .[B,DG]2 D .D2 C |[M:5/8] C[K:bass][D,F,A,D]- [D,F,A,D]3- | [D,F,A,D] z z z2 |] %26
V:4
 x12 | .C6 .A,6 | z6 .A,6[K:treble] | .B,6[K:bass] .A,6 | A,,12 | D,,6 D,,6 | D,,6 D,,6 | %7
 E,,6 .E,,6 |[M:5/4] A,,2- A,,6 z2 |[M:6/8] z [D,,D,]2- [D,,D,] [A,,,A,,]2- | %10
 [A,,,A,,] [D,,D,]2- [D,,D,] A,,,2- | A,,, [D,,D,]2- [D,,D,] [F,,F,]2- | %12
 [F,,F,] [G,,G,]2- [G,,G,] E,,2- | E,, [A,,,A,,]2- [A,,,A,,] [E,,E,]2- | %14
 [E,,E,] [A,,,A,,]2- [A,,,A,,] E,,2- | E,, [A,,A,]2- [A,,A,] [A,,,A,,]2- | %16
 [A,,,A,,] [D,,D,]2- [D,,D,] A,,,2- | A,,, [D,,D,]2- [D,,D,] [A,,,A,,]2- | %18
 [A,,,A,,] [D,,D,]2- [D,,D,] A,,,2- | A,,, [D,,D,]2- [D,,D,] [=C,,=C,]2- | [C,,C,]3 z3 | x6 | x6 | %23
 z [A,,,A,,]2- [A,,,A,,] [A,,,A,,]2- |[M:5/8] [A,,,A,,] z z z2 | x5 |] %26
V:5
 x12 | x12 | x12 | x12 | x12 | x4[K:bass] x6[K:treble] x2 | x12 | x12 |[M:5/4] x10 |[M:6/8] x6 | %10
 z3 z A,,2- | A,,3 z3 | z3 z E,2- | E,3 z3 | z3 z F,2- | F,3 z3 | z3 z[K:bass] B,,2- | %17
 B,,3[K:treble] z3 | z3 z A,,2- | A,,3 z3 | x4[K:bass] x2 | x6 | x6 | x6 |[M:5/8] x[K:bass] x4 | %25
 x5 |] %26

